X:5
T:Angeline the Baker
M:4/4
L:1/4
K:D
d/2B/2 | "D"A B d3/2 A/2 | "G"B d2 d/2B/2 | "D"A B d/2B/2 A | "Bm"B3 d/2B/2 | 
"D"A B d3/2 e/2 | f e d3/2 e/2 | "Bm"f e "G"d B | "A"A3 :|
|: f/2g/2 | "D"a f "G"e d/2e/2 | "A7"f e "D"d f/2g/2 | a f e d | "Bm"B3/2 B/2 B f/2g/2 | 
"D"a f "G"e d/2e/2 | "A7"f e "Bm"d3/2 e/2 | "Bm"f e "G"d B | "A"A3 z :|

%%newpage
%%scale 0.8

